source/img/sprite/pinterest.svg

<svg width="30" height="30" viewBox="0 0 30 30" fill="none" xmlns="http://www.w3.org/2000/svg">
<path d="M14.9999 0C23.2847 0 30 6.71625 30 15.0001C30 23.2848 23.2847 30 14.9999 30C6.71522 30 0 23.2847 0 15.0001C0 6.71625 6.71532 0 14.9999 0Z" fill="#F8FDFF"/>
<path d="M15 5C9.4823 5 5 9.4823 5 15C5 20.5177 9.4823 25 15 25C20.5177 25 25 20.5177 25 15C25 9.4823 20.5177 5 15 5ZM15 5.86957C20.0477 5.86957 24.1304 9.95225 24.1304 15C24.1304 20.0477 20.0477 24.1304 15 24.1304C14.0767 24.1304 13.186 23.9922 12.3463 23.7381C12.7203 23.1128 13.2032 22.219 13.395 21.481C13.509 21.0434 13.9776 19.2587 13.9776 19.2587C14.2821 19.84 15.1719 20.332 16.1192 20.332C18.9383 20.332 20.9706 17.7394 20.9706 14.5177C20.9706 11.4289 18.4502 9.11855 15.2072 9.11855C11.1725 9.11855 9.03108 11.8264 9.03108 14.775C9.03108 16.1462 9.7604 17.8531 10.9282 18.3967C11.105 18.4791 11.2 18.4434 11.2407 18.2719C11.2719 18.1418 11.4297 17.5073 11.5005 17.2121C11.5232 17.1179 11.5122 17.0365 11.436 16.9438C11.0495 16.475 10.7396 15.6138 10.7396 14.8106C10.7396 12.7487 12.3006 10.7532 14.9601 10.7532C17.2564 10.7532 18.8646 12.3186 18.8646 14.5567C18.8646 17.0853 17.5879 18.8375 15.9265 18.8375C15.0089 18.8375 14.3219 18.0784 14.5423 17.1476C14.8065 16.0366 15.3167 14.8378 15.3167 14.0353C15.3167 13.3177 14.9316 12.7191 14.1338 12.7191C13.1958 12.7191 12.4423 13.6889 12.4423 14.989C12.4423 15.8162 12.7225 16.3765 12.7225 16.3765C12.7225 16.3765 11.7959 20.2941 11.6262 21.0233C11.4561 21.7519 11.5017 22.7332 11.5718 23.4638C8.22658 22.1098 5.86957 18.8345 5.86957 15C5.86957 9.95225 9.95225 5.86957 15 5.86957Z" fill="#041827"/>
</svg>

<svg xmlns="http://www.w3.org/2000/svg" width="30" height="30" fill="none"><path fill="#F8FDFF" d="M15 0a15 15 0 1 1 0 30 15 15 0 0 1 0-30Z"/><path fill="#041827" d="M15 5a10 10 0 1 0 .01 20.01A10 10 0 0 0 15 5Zm0 .87a9.12 9.12 0 1 1-2.65 17.87c.37-.63.85-1.52 1.04-2.26l.59-2.22c.3.58 1.2 1.07 2.14 1.07 2.82 0 4.85-2.6 4.85-5.81 0-3.1-2.52-5.4-5.76-5.4-4.04 0-6.18 2.7-6.18 5.66 0 1.37.73 3.07 1.9 3.62.18.08.27.04.31-.13l.26-1.06a.28.28 0 0 0-.06-.27 3.64 3.64 0 0 1-.7-2.13 4.05 4.05 0 0 1 4.22-4.06c2.3 0 3.9 1.57 3.9 3.8 0 2.54-1.27 4.29-2.93 4.29-.92 0-1.6-.76-1.39-1.7.27-1.1.78-2.3.78-3.1 0-.72-.39-1.32-1.19-1.32-.93 0-1.69.97-1.69 2.27 0 .83.28 1.39.28 1.39l-1.1 4.64a8.32 8.32 0 0 0-.05 2.44A9.12 9.12 0 0 1 15 5.87Z"/></svg>
